src/lib/packages/icons/src/assets/filled/door-open.svg

<svg width="24" height="24" viewBox="0 0 24 24" fill="none" xmlns="http://www.w3.org/2000/svg">
<path d="M12.17 3.04001L6.16998 4.36999C5.48998 4.51999 5 5.12998 5 5.82998V18.17C5 18.87 5.48998 19.48 6.16998 19.63L12.17 20.96C13.11 21.17 14 20.46 14 19.5V4.5C14 3.54 13.11 2.83001 12.17 3.04001ZM10.52 13C9.97002 13 9.52002 12.55 9.52002 12C9.52002 11.45 9.96001 11 10.51 11H10.52C11.07 11 11.52 11.45 11.52 12C11.52 12.55 11.07 13 10.52 13ZM16 18.7V5.29999C16 5.13399 16.134 5 16.3 5H17.5C18.328 5 19 5.672 19 6.5V17.5C19 18.328 18.328 19 17.5 19H16.3C16.134 19 16 18.866 16 18.7Z" fill="currentColor"/>
</svg>

<svg xmlns="http://www.w3.org/2000/svg" width="24" height="24" fill="none"><path fill="currentColor" d="m12.17 3.04-6 1.33C5.49 4.52 5 5.13 5 5.83v12.34c0 .7.49 1.31 1.17 1.46l6 1.33c.94.21 1.83-.5 1.83-1.46v-15c0-.96-.89-1.67-1.83-1.46ZM10.52 13c-.55 0-1-.45-1-1s.44-1 .99-1h.01c.55 0 1 .45 1 1s-.45 1-1 1ZM16 18.7V5.3a.3.3 0 0 1 .3-.3h1.2A1.5 1.5 0 0 1 19 6.5v11a1.5 1.5 0 0 1-1.5 1.5h-1.2a.3.3 0 0 1-.3-.3Z"/></svg>
